public/assets/images/icons/white/folder-date-empty.svg

<svg xmlns="http://www.w3.org/2000/svg" viewBox="0 0 54 54"><path d="M27 17a11 11 0 1 0 11 11 11 11 0 0 0-11-11zm0 19.8a8.77 8.77 0 1 1 8.78-8.8A8.78 8.78 0 0 1 27 36.8z" fill="#fff"/><path d="M25.38 20.62v6.83l-4.22 2.46 1.67 2.92 5.89-3.42h.04l-.01-8.79h-3.37z" fill="#fff"/><path d="M28 11V9.94a3 3 0 0 0-3-3H14a3 3 0 0 0-3 3V11H3v35h48V11zm20 32H6V13.94h42z" fill="#fff"/></svg>

<svg xmlns="http://www.w3.org/2000/svg" viewBox="0 0 54 54"><defs><style>.a{fill:#ffffff;}</style></defs><path class="a" d="M27,17A11,11,0,1,0,38,28,11,11,0,0,0,27,17ZM27,36.8A8.77,8.77,0,1,1,35.78,28,8.78,8.78,0,0,1,27,36.8Z"/><polygon class="a" points="25.38 20.62 25.38 27.45 21.16 29.91 22.83 32.83 28.72 29.41 28.76 29.41 28.75 20.62 25.38 20.62"/><path class="a" d="M28,11V9.94a3,3,0,0,0-3-3H14a3,3,0,0,0-3,3V11H3V46H51V11ZM48,43H6V13.94H48Z"/></svg>
